X:1
T:Title
%%score { 1 | ( 2 3 ) }
L:1/8
Q:1/4=87
M:6/8
K:Eb
V:1 treble nm="Grand Piano"
V:2 bass 
V:3 bass 
V:1
 G>GG GFE | A2 A G2 G | [A,DF]>[A,DF][A,DF] [G,E]2 [B,DF] | G3- G2 G | G>GG GFE | A2 A G2 G | %6
w: Arthur~J.~Smith * * * * *||||||
 F>FF =A2 c | [DB]6 |[M:15/16] [DA]>[DA][FA][Fd]3/2- [Fd]3 | c>ccB3/2- B3 | %10
w: ||||
[M:3/4] [DB]>[DB] [DB] [DF]2 [D_G] | G4- GG | G2 GG FE |[M:15/16] A>AA G3 E3/2 | %14
w: ||||
[M:3/4] [A,DF]>[A,DF] [A,DF] [B,DG]2 [A,DF] | [G,B,E]6 |] %16
w: ||
V:2
 z3 .B,3 | [E,CE]2 [E,=B,E] [E,_B,E]2 [E,B,E] | B,,>B,,B,, C,2 B,, | [E,B,E]3- [E,B,E]2 [E,B,E] | %4
 z3 .B,3 | [E,CE]2 [E,=B,E] [E,_B,E]2 [E,B,E] | [F,B,D]>[F,B,D][F,B,D] [F,CE]2 [F,=A,E] | %7
 [B,,B,]6 |[M:15/16] [B,,F,]>[B,,F,][B,,F,][B,,A,]3/2- [B,,A,]3 | %9
 [E,A,E]>[E,A,E][E,A,E][E,G,E]3/2- [E,G,E]3 |[M:3/4] [B,,F,]>[B,,F,] [B,,F,] [B,,B,]2 [B,,B,] | %11
 [E,B,E]4- [E,B,E][E,B,E] | z2 z B, z2 |[M:15/16] [E,CE]>[E,CE][E,=B,E] [E,_B,E]3 [C,=A,]3/2 | %14
[M:3/4] B,,>B,, B,, B,,2 B,, | E,6 |] %16
V:3
 [E,B,E]>[E,B,E][E,B,E] [E,E]-[E,A,E][E,G,] | x6 | x6 | x6 | %4
 [E,B,E]>[E,B,E][E,B,E] [E,E]-[E,A,E][E,G,] | x6 | x6 | x6 |[M:15/16] x15/2 | x15/2 |[M:3/4] x6 | %11
 x6 | [E,B,E]2 [E,B,E][E,E]- [E,A,E][E,G,] |[M:15/16] x15/2 |[M:3/4] x6 | x6 |] %16

